X: 30357
T: Old Pigeon On The Gate, The
R: reel
M: 4/4
K: Gdorian
|:Ac|dG ~G2 dcAc|~d3e dcAB|cF ~F2 cFAB|~c3f dcAc|
dG ~G2 dcAc|~d3e dcAG|FAcf abga|fdcA G2:|
|:(3ABc|dg g/g/g fagf|dgga bgaf|dc c/c/c =Bcde|f2 eg fdcA|
Gg g/g/g fagf|dgga bgaf|dc=Bc gceg|fdcA G2:|

